X:1
T:[ID 8-88]
T:[ID 8-88]
T:Bezeichnung standardisiert: Walzer Waltzer
T:Urheber unbekannt Datum in der hier transkribierten schriftlichen Quelle: 1792
C:Urheber unbekannt
C:Datum in der hier transkribierten schriftlichen Quelle: 1792
L:1/8
M:3/8
K:D
V:1 treble 
V:1
 f3 | gg/f/g/e/ | aaf | gge | f3 | gg/f/g/e/ | aa/g/f/e/ | d3 :: eae | f2 b | a/g/f/e/f/g/ | aaa | %12
 eae | f2 b | a/g/f/e/f/g/ | a3 :: gg/f/g/e/ | fad | d/c/B/A/B/c/ | dfd | gg/f/g/e/ | fad | %22
 d/c/B/A/B/c/ | d3 :| %24

